X:11726
T:New Exchange
M:2/2
K:F
P:AB
P:A
"F"agfe f2 c2|"Bb"defg "C"d2 ag|"Dm"fe d2 "Am"d2>d2|"Dm"d4>A4|\
"Bb"d2 e2 "F"f2>f2|"Gm"g2 a2 b2>b2|"F"ag f2 "C"e2>d2|"Dm"d4>z4||
P:B
"C"c2 de "Dm"f2>A2|"Gm"Bc d2 "C"c2>c2|"Bb"de f2 "Gm"e2>f2|"C"g4>a4|\
"Gm"b2 a2 g2>f2|"C"e2>d2 c2>c2|"Bb"de f2 "C"e2>f2|"F"f2 f4 z2||
